exported-svg/rss.svg

<svg height="24" viewBox="0 0 24 24" width="24" xmlns="http://www.w3.org/2000/svg"><path d="m4.5 12c-.27614237 0-.5-.2238576-.5-.5s.22385763-.5.5-.5c5.24670512 0 9.5 4.2532949 9.5 9.5 0 .2761424-.2238576.5-.5.5s-.5-.2238576-.5-.5c0-4.6944204-3.80557963-8.5-8.5-8.5zm0-7c-.27614237 0-.5-.22385763-.5-.5s.22385763-.5.5-.5c9.1126984 0 16.5 7.3873016 16.5 16.5 0 .2761424-.2238576.5-.5.5s-.5-.2238576-.5-.5c0-8.5604136-6.9395864-15.5-15.5-15.5zm1 16c-.82842712 0-1.5-.6715729-1.5-1.5s.67157288-1.5 1.5-1.5 1.5.6715729 1.5 1.5-.67157288 1.5-1.5 1.5zm0-1c.27614237 0 .5-.2238576.5-.5s-.22385763-.5-.5-.5-.5.2238576-.5.5.22385763.5.5.5z"/></svg>

<?xml version="1.0" encoding="UTF-8"?>
<svg width="24px" height="24px" viewBox="0 0 24 24" version="1.1" xmlns="http://www.w3.org/2000/svg" xmlns:xlink="http://www.w3.org/1999/xlink">
    <!-- Generator: Sketch 55.2 (78181) - https://sketchapp.com -->
    <title>rss</title>
    <desc>Created with Sketch.</desc>
    <g id="rss" stroke="none" stroke-width="1" fill="none" fill-rule="evenodd">
        <path d="M4.5,12 C4.22385763,12 4,11.7761424 4,11.5 C4,11.2238576 4.22385763,11 4.5,11 C9.74670512,11 14,15.2532949 14,20.5 C14,20.7761424 13.7761424,21 13.5,21 C13.2238576,21 13,20.7761424 13,20.5 C13,15.8055796 9.19442037,12 4.5,12 Z M4.5,5 C4.22385763,5 4,4.77614237 4,4.5 C4,4.22385763 4.22385763,4 4.5,4 C13.6126984,4 21,11.3873016 21,20.5 C21,20.7761424 20.7761424,21 20.5,21 C20.2238576,21 20,20.7761424 20,20.5 C20,11.9395864 13.0604136,5 4.5,5 Z M5.5,21 C4.67157288,21 4,20.3284271 4,19.5 C4,18.6715729 4.67157288,18 5.5,18 C6.32842712,18 7,18.6715729 7,19.5 C7,20.3284271 6.32842712,21 5.5,21 Z M5.5,20 C5.77614237,20 6,19.7761424 6,19.5 C6,19.2238576 5.77614237,19 5.5,19 C5.22385763,19 5,19.2238576 5,19.5 C5,19.7761424 5.22385763,20 5.5,20 Z" id="Combined-Shape" fill="#000000" fill-rule="nonzero"></path>
    </g>
</svg>
